X: 1
T: l'Ange aux Patins
T: Angel on Ice Skates
O: Qu\'ebec
R: waltz
S: Fiddle Hell Online 2020-11-05
Z: 2021 John Chambers <jc:trillian.mit.edu>
M: 3/4
L: 1/4
K: D
|:\
"D"d>ef | a>fe | "Bm"d>ef | afe |\
"G">ef | afe | "Em"edB | "A7"(3BcB AF |[1 "D"{f}A3- | "A7"A3 :|
|:\
"Em"E>FG | B2A | "G"G>AB | d2c |\
"Bm"B>cd | "Bbaug(D/A)"fed | "D/A(E7)"{e}dcd |1 "E7(A)"e3 :|2 "A"e3- | "_D.C."e3 |]
